X: 1229
T: Karga da Seni Tutarım
C: Mahmut Güzelgöz
O: Turkey
F: http://compmusic.upf.edu/node/140
N: beyati--kanto--nimsofyan--karga_da_seni--
N: makam= beyati
N: form= kanto
N: usul= nimsofyan = 2/4
M: 2/4
L: 1/16
K: C _2/4B   
Q: 1/4=84
%%MIDI tuningsystem comma53
c2d4d2 dedcd4  | c2d2e2f2 e2ded2{e}d2  | \
w:  ARANAĞME  |   | 
cdefe2d2 d2cdc2B2  | 
w:   | 
c2d2c2_3/4BA A2A4A2  | e2fge2d2 dcdec2BA  | \
w:   |   | 
cd2ccB2A A3AA2A2  | 
w:   | 
e2f2e2d2 d3ccBAB  | .c2dccBBA A3/2B/ABA2d2  | 
w:  Kar *  ga  da  se *  ni   |  tu ta *  rım  *  am *  man   SAZ  | 
c2d2d4 c2d2d4  | c2d2e2fg e2dcd4  | ef3e2e2 d2dcc2BA  | 
w:  Ka *  nat la rı nı   |  yo la rım  am *  man    |  Kü çük  kü çük  yel pa *  ze ler   | 
c2d2c2BA A4a/g/f/e/d2  | .c2.d2.d2.d2 {d}cddcc2BA  | 
w:  ya pa rım  am *  man   SAZ  |  Mi ni  mi ni  *  ha nım *  *  la ra   | 
c2d2c{d}c{d}BA A4D4  | c2d2ee/f/ed d2^3/4fgabc'd'  | 
w:  sa ta rım  *  *  *  am *  man  SAZ  |  Am ma nın_ am *  *  *  man  SAZ  | 
c2d2ee/^3/4f/ed d2D/E/^3/4F/G/A/B/c/d/e/=f3/2  | \
w:  be kâ rım_ am *  *  *  man  SAZ  | 
f3e.e2ed d2dccBAB  | 
w:  Ev *  li  de  *  de ği *  lim   | 
c2d2c{d}c{d}BA A4z4  | c2.d2.d2.d2 {c}d2d2d4  | \
w:  ben  ge lem_ *  *  *  am *  man    |  Be kâr la ra  *  ça ma şır   | 
c2d2e2fg e2dcd4  | 
w:  yı ka rım_ am *  man    | 
{e}f3fe2ed .d2dccBAB  | c2d2c{d}c{d}BA A8  | \
w:  *  Ev li le rin  *  be li *  ni   |  bü ke rim_ *  *  *  am *  man    | 
.c2.d2.d2.d2 {d}cddcc2BA  | 
w:  Mi ni  mi ni  *  ha nım *  *  la ra   | 
c2d2c{d}c{d}BA A4D4  | c2d2ee/f/ed d2^3/4fgabc'd'  | 
w:  sa ta rım  *  *  *  am *  man  SAZ  |  Am ma nın_ am *  *  *  man  SAZ  | 
c2d2ee/^3/4f/ed d2D/E/^3/4F/G/A/B/c/d/e/=f3/2  | \
w:  be kâ rım_ am *  *  *  man  SAZ  | 
f3e.e2ed d2dccBAB  | 
w:  Ev *  li  de  *  de ği *  lim   | 
c2d2c{d}c{d}BA A4z4  | c2.d2.d2.d2 {c}d2d2d4  | \
w:  ben  ge lem_ *  *  *  am *  man    |  Be kâr la ra  *  ça ma şır   | 
c2d2e2fg e2dcd4  | 
w:  yı ka rım_ am *  man    | 
{e}f3fe2ed .d2dccBAB  | c2d2c{d}c{d}BA A8  | |


